X:245
T:Jerusalem's Ridge
C:Bill Monroe
N:Transcribed by Richard A Taylor
R:bluegrass
L:1/8
Q:1/4=120
M:4/4
K:C
z8 |: "Am"A,B, CD E2 EF | ED CE DC B,G, | A,B, CD E2 EF | ED CB, "E"A,4 | "Am"A,B, CD E2 AG | 
ED CB, DC B,G, | A,B, CD ED CB, | "E"DC B,G, "Am"A,4 :|: "Am"DE A2 A4 | AG EG cB AG | 
DE A2 A4 | AB cd "E"e4 | "Am"DE A2 A4 | AG EG cB AG | de g2 ed cB | "E"dc BG "Am"A2 GA | 
"Am"DE4z FE | "Dm"D6 ED | "C"C2 E2 "E"B,C B,G, | "Am"A,6 GA | "Am"DE4z FE | "Dm"D6 ED | 
"C"CE DC "E"B,D CB, | "Am"A,8 :|: "Am"de a2 a2 ag | eg ab c'2 c'c' | "C"eg2a g2 ge | 
ga ge ^d=d cd | "Am"eg ab ag ab | c'a bg ag ed | e2 ef ed cd | "E"ed c^G "Am"A4 :| B/c/B AG ED CB, | 
A,B, CD ^DE G^G | A2 A,2 [e2c2A2E2A,2] A,2 | [e2d2A2F2A,2] A,2 [a4e4c4A4A,4] | 
z8 | 


